lib/flags/eh-western-sahara.svg

<svg xmlns="http://www.w3.org/2000/svg" fill="none" aria-hidden="true" viewBox="0 0 42 30"><g id="Country=EH - Western Sahara, Size=sm (36x24)" filter="url(#filter0_dd_91_28554)"><g clip-path="url(#clip0_91_28554)"><g id="flag"><mask id="mask0_91_28554" width="36" height="24" x="3" y="2" maskUnits="userSpaceOnUse" style="mask-type:alpha"><rect id="mask" width="36" height="24" x="3" y="2" fill="white"/></mask><g mask="url(#mask0_91_28554)"><g id="contents"><path id="middle" fill="#F7FCFF" fill-rule="evenodd" d="M3 2H39V26H3V2Z" clip-rule="evenodd"/><path id="top" fill="#272727" fill-rule="evenodd" d="M3 2V10H39V2H3Z" clip-rule="evenodd"/><path id="bottom" fill="#5EAA22" fill-rule="evenodd" d="M3 18V26H39V18H3Z" clip-rule="evenodd"/><path id="triangle" fill="#E31D1C" fill-rule="evenodd" d="M3 2L21 14L3 26V2Z" clip-rule="evenodd"/><g id="mark"><path id="mark_2" fill="#E31D1C" fill-rule="evenodd" d="M27.3986 17.4771C27.3986 17.4771 24.8395 16.1024 24.8395 13.8305C24.8395 11.5587 27.3986 10.3636 27.3986 10.3636C26.2531 9.71756 22.2812 10.6395 22.2812 13.9046C22.2812 17.1696 26.2158 17.7728 27.3986 17.4771ZM29.4693 13.3125L27.9798 12.0721L28.4942 13.6557L27.0529 14.2626L28.8232 14.7748L29.5919 16.489L29.9281 14.9022L31.6766 15.2454L30.3536 14.097L30.8012 12.8717L29.4693 13.3125Z" clip-rule="evenodd"/></g></g></g></g></g></g><defs><filter id="filter0_dd_91_28554" width="42" height="30" x="0" y="0" color-interpolation-filters="sRGB" filterUnits="userSpaceOnUse"><feFlood flood-opacity="0" result="BackgroundImageFix"/><feColorMatrix in="SourceAlpha" result="hardAlpha" values="0 0 0 0 0 0 0 0 0 0 0 0 0 0 0 0 0 0 127 0"/><feOffset dy="1"/><feGaussianBlur stdDeviation="1"/><feColorMatrix values="0 0 0 0 0.0627451 0 0 0 0 0.0941176 0 0 0 0 0.156863 0 0 0 0.06 0"/><feBlend in2="BackgroundImageFix" result="effect1_dropShadow_91_28554"/><feColorMatrix in="SourceAlpha" result="hardAlpha" values="0 0 0 0 0 0 0 0 0 0 0 0 0 0 0 0 0 0 127 0"/><feOffset dy="1"/><feGaussianBlur stdDeviation="1.5"/><feColorMatrix values="0 0 0 0 0.0627451 0 0 0 0 0.0941176 0 0 0 0 0.156863 0 0 0 0.1 0"/><feBlend in2="effect1_dropShadow_91_28554" result="effect2_dropShadow_91_28554"/><feBlend in="SourceGraphic" in2="effect2_dropShadow_91_28554" result="shape"/></filter><clipPath id="clip0_91_28554"><rect width="36" height="24" x="3" y="2" fill="white" rx="2"/></clipPath></defs></svg>

<svg xmlns="http://www.w3.org/2000/svg" fill="none" aria-hidden="true" viewBox="0 0 42 30"><g filter="url(#a)"><g clip-path="url(#b)"><mask id="c" width="36" height="24" x="3" y="2" maskUnits="userSpaceOnUse" style="mask-type:alpha"><path fill="#fff" d="M3 2h36v24H3z"/></mask><g fill-rule="evenodd" clip-rule="evenodd" mask="url(#c)"><path fill="#F7FCFF" d="M3 2h36v24H3V2Z"/><path fill="#272727" d="M3 2v8h36V2H3Z"/><path fill="#5EAA22" d="M3 18v8h36v-8H3Z"/><path fill="#E31D1C" d="m3 2 18 12L3 26V2Zm24.399 15.477s-2.56-1.375-2.56-3.646c0-2.272 2.56-3.467 2.56-3.467-1.146-.646-5.118.275-5.118 3.54 0 3.266 3.935 3.869 5.118 3.573Zm2.07-4.165-1.49-1.24.515 1.584-1.441.607 1.77.512.769 1.714.336-1.587 1.749.343-1.323-1.148.447-1.225-1.332.44Z"/></g></g></g><defs><clipPath id="b"><rect width="36" height="24" x="3" y="2" fill="#fff" rx="2"/></clipPath><filter id="a" width="42" height="30" x="0" y="0" color-interpolation-filters="sRGB" filterUnits="userSpaceOnUse"><feFlood flood-opacity="0" result="BackgroundImageFix"/><feColorMatrix in="SourceAlpha" result="hardAlpha" values="0 0 0 0 0 0 0 0 0 0 0 0 0 0 0 0 0 0 127 0"/><feOffset dy="1"/><feGaussianBlur stdDeviation="1"/><feColorMatrix values="0 0 0 0 0.0627451 0 0 0 0 0.0941176 0 0 0 0 0.156863 0 0 0 0.06 0"/><feBlend in2="BackgroundImageFix" result="effect1_dropShadow_91_28554"/><feColorMatrix in="SourceAlpha" result="hardAlpha" values="0 0 0 0 0 0 0 0 0 0 0 0 0 0 0 0 0 0 127 0"/><feOffset dy="1"/><feGaussianBlur stdDeviation="1.5"/><feColorMatrix values="0 0 0 0 0.0627451 0 0 0 0 0.0941176 0 0 0 0 0.156863 0 0 0 0.1 0"/><feBlend in2="effect1_dropShadow_91_28554" result="effect2_dropShadow_91_28554"/><feBlend in="SourceGraphic" in2="effect2_dropShadow_91_28554" result="shape"/></filter></defs></svg>
